static/img/kroki/398935c5da75e1da0e5a78735fc6fd1e.svg

<?xml version="1.0" encoding="us-ascii" standalone="no"?><svg xmlns="http://www.w3.org/2000/svg" xmlns:xlink="http://www.w3.org/1999/xlink" contentStyleType="text/css" height="152px" preserveAspectRatio="none" style="width:366px;height:152px;" version="1.1" viewBox="0 0 366 152" width="366px" zoomAndPan="magnify"><defs/><g><!--class aws_iam_role--><g id="elem_aws_iam_role"><rect codeLine="23" fill="#3D176E" height="39.7891" id="aws_iam_role" rx="2.5" ry="2.5" style="stroke:#000D19;stroke-width:0.5;" width="157" x="7" y="7"/><ellipse cx="22" cy="26.8945" fill="#ADD1B2" rx="11" ry="11" style="stroke:#181818;stroke-width:1.0;"/><path d="M24.9688,32.5352 Q24.3906,32.832 23.75,32.9727 Q23.1094,33.1289 22.4063,33.1289 Q19.9063,33.1289 18.5781,31.4883 Q17.2656,29.832 17.2656,26.707 Q17.2656,23.582 18.5781,21.9258 Q19.9063,20.2695 22.4063,20.2695 Q23.1094,20.2695 23.75,20.4258 Q24.4063,20.582 24.9688,20.8789 L24.9688,23.5977 Q24.3438,23.0195 23.75,22.7539 Q23.1563,22.4727 22.5313,22.4727 Q21.1875,22.4727 20.5,23.5508 Q19.8125,24.6133 19.8125,26.707 Q19.8125,28.8008 20.5,29.8789 Q21.1875,30.9414 22.5313,30.9414 Q23.1563,30.9414 23.75,30.6758 Q24.3438,30.3945 24.9688,29.8164 L24.9688,32.5352 Z " fill="#000000"/><text fill="#D9B8FF" font-family="Helvetica" font-size="17" lengthAdjust="spacing" textLength="115" x="41" y="32.7798">aws_iam_role</text></g><!--class aws_sns_subscription--><g id="elem_aws_sns_subscription"><rect codeLine="26" fill="#3D176E" height="39.7891" id="aws_sns_subscription" rx="2.5" ry="2.5" style="stroke:#000D19;stroke-width:0.5;" width="220" x="72.5" y="106.79"/><ellipse cx="87.5" cy="126.6845" fill="#ADD1B2" rx="11" ry="11" style="stroke:#181818;stroke-width:1.0;"/><path d="M90.4688,132.3252 Q89.8906,132.622 89.25,132.7627 Q88.6094,132.9189 87.9063,132.9189 Q85.4063,132.9189 84.0781,131.2783 Q82.7656,129.622 82.7656,126.497 Q82.7656,123.372 84.0781,121.7158 Q85.4063,120.0595 87.9063,120.0595 Q88.6094,120.0595 89.25,120.2158 Q89.9063,120.372 90.4688,120.6689 L90.4688,123.3877 Q89.8438,122.8095 89.25,122.5439 Q88.6563,122.2627 88.0313,122.2627 Q86.6875,122.2627 86,123.3408 Q85.3125,124.4033 85.3125,126.497 Q85.3125,128.5908 86,129.6689 Q86.6875,130.7314 88.0313,130.7314 Q88.6563,130.7314 89.25,130.4658 Q89.8438,130.1845 90.4688,129.6064 L90.4688,132.3252 Z " fill="#000000"/><text fill="#D9B8FF" font-family="Helvetica" font-size="17" lengthAdjust="spacing" textLength="178" x="106.5" y="132.5698">aws_sns_subscription</text></g><!--class aws_sns_topic--><g id="elem_aws_sns_topic"><rect codeLine="29" fill="#3D176E" height="39.7891" id="aws_sns_topic" rx="2.5" ry="2.5" style="stroke:#000D19;stroke-width:0.5;" width="160" x="199.5" y="7"/><ellipse cx="214.5" cy="26.8945" fill="#ADD1B2" rx="11" ry="11" style="stroke:#181818;stroke-width:1.0;"/><path d="M217.4688,32.5352 Q216.8906,32.832 216.25,32.9727 Q215.6094,33.1289 214.9063,33.1289 Q212.4063,33.1289 211.0781,31.4883 Q209.7656,29.832 209.7656,26.707 Q209.7656,23.582 211.0781,21.9258 Q212.4063,20.2695 214.9063,20.2695 Q215.6094,20.2695 216.25,20.4258 Q216.9063,20.582 217.4688,20.8789 L217.4688,23.5977 Q216.8438,23.0195 216.25,22.7539 Q215.6563,22.4727 215.0313,22.4727 Q213.6875,22.4727 213,23.5508 Q212.3125,24.6133 212.3125,26.707 Q212.3125,28.8008 213,29.8789 Q213.6875,30.9414 215.0313,30.9414 Q215.6563,30.9414 216.25,30.6758 Q216.8438,30.3945 217.4688,29.8164 L217.4688,32.5352 Z " fill="#000000"/><text fill="#D9B8FF" font-family="Helvetica" font-size="17" lengthAdjust="spacing" textLength="118" x="233.5" y="32.7798">aws_sns_topic</text></g><!--link aws_iam_role to aws_sns_subscription--><g id="link_aws_iam_role_aws_sns_subscription"><path codeLine="32" d="M104.66,47.22 C121.67,64.36 142.1548,85.01 159.1548,102.15 " fill="none" id="aws_iam_role-to-aws_sns_subscription" style="stroke:#1A83AF;stroke-width:2.0;"/><polygon fill="#1A83AF" points="163.38,106.41,159.8822,97.2032,159.859,102.86,154.2022,102.8368,163.38,106.41" style="stroke:#1A83AF;stroke-width:2.0;"/></g><!--link aws_sns_topic to aws_sns_subscription--><g id="link_aws_sns_topic_aws_sns_subscription"><path codeLine="33" d="M260.34,47.22 C243.33,64.36 222.8452,85.01 205.8452,102.15 " fill="none" id="aws_sns_topic-to-aws_sns_subscription" style="stroke:#1A83AF;stroke-width:2.0;"/><polygon fill="#1A83AF" points="201.62,106.41,210.7978,102.8368,205.141,102.86,205.1178,97.2032,201.62,106.41" style="stroke:#1A83AF;stroke-width:2.0;"/></g><!--SRC=[XP1FIyD04CNl-HGBFHSIWpQz26cWwAM8zIPI9jdPPaco6sQdXYf-Trkhiatwvp2NUJ_Ul3UbbYYmQNah6cno91UuIfiM21gH4jakixKbCL8AL3pfYtDh-2gmW0R50zRloBg0Fl5Iwg8ow9ouyQGP5DMQxCR8WpqJ6BUJqB17PJKubpAJpZUCNXWvpHEb-cJVT1JBQ7A70yoIHFf5mZ2KqRIFN3rriVS_iTGVA2B_QGlBE8WvEF53NKov9xoGWw9_-jcCJo2bDcjnw-sU3vd881tjboL8s-rf1RNpppX6GilR5hD1AvmcKarEme_duA3Olqv0vrOQcXNP6iLd47nvUsTsiybTGRfbRSqfdMshYuDmP3L-7KLf4gVpj_7zIRFWsE4w_mq0]--></g></svg>

<svg xmlns="http://www.w3.org/2000/svg" width="366" height="152" viewBox="0 0 366 152"><rect width="157" height="39.789" x="7" y="7" fill="#3D176E" rx="2.5" ry="2.5" style="stroke:#000d19;stroke-width:.5"/><circle cx="22" cy="26.895" r="11" fill="#ADD1B2" style="stroke:#181818;stroke-width:1"/><path d="M24.969 32.535q-.578.297-1.219.438-.64.156-1.344.156-2.5 0-3.828-1.64-1.312-1.657-1.312-4.782t1.312-4.781q1.328-1.656 3.828-1.656.703 0 1.344.156.656.156 1.219.453v2.719q-.625-.578-1.219-.844-.594-.281-1.219-.281-1.343 0-2.031 1.078-.687 1.062-.687 3.156t.687 3.172q.688 1.062 2.031 1.062.625 0 1.219-.265.594-.281 1.219-.86z"/><text x="41" y="32.78" fill="#D9B8FF" font-family="Helvetica" font-size="17" textLength="115">aws_iam_role</text><rect width="220" height="39.789" x="72.5" y="106.79" fill="#3D176E" rx="2.5" ry="2.5" style="stroke:#000d19;stroke-width:.5"/><circle cx="87.5" cy="126.684" r="11" fill="#ADD1B2" style="stroke:#181818;stroke-width:1"/><path d="M90.469 132.325q-.578.297-1.219.438-.64.156-1.344.156-2.5 0-3.828-1.64-1.312-1.657-1.312-4.782t1.312-4.781q1.328-1.656 3.828-1.656.703 0 1.344.156.656.156 1.219.453v2.719q-.625-.579-1.219-.844-.594-.281-1.219-.281-1.344 0-2.031 1.078-.687 1.062-.687 3.156t.687 3.172q.688 1.062 2.031 1.062.625 0 1.219-.265.594-.281 1.219-.86z"/><text x="106.5" y="132.57" fill="#D9B8FF" font-family="Helvetica" font-size="17" textLength="178">aws_sns_subscription</text><rect width="160" height="39.789" x="199.5" y="7" fill="#3D176E" rx="2.5" ry="2.5" style="stroke:#000d19;stroke-width:.5"/><circle cx="214.5" cy="26.895" r="11" fill="#ADD1B2" style="stroke:#181818;stroke-width:1"/><path d="M217.469 32.535q-.578.297-1.219.438-.64.156-1.344.156-2.5 0-3.828-1.64-1.312-1.657-1.312-4.782t1.312-4.781q1.328-1.656 3.828-1.656.703 0 1.344.156.656.156 1.219.453v2.719q-.625-.578-1.219-.844-.594-.281-1.219-.281-1.344 0-2.031 1.078-.687 1.062-.687 3.156t.687 3.172q.688 1.062 2.031 1.062.625 0 1.219-.265.594-.281 1.219-.86z"/><text x="233.5" y="32.78" fill="#D9B8FF" font-family="Helvetica" font-size="17" textLength="118">aws_sns_topic</text><path fill="none" d="M104.66 47.22c17.01 17.14 37.495 37.79 54.495 54.93" style="stroke:#1a83af;stroke-width:2"/><path fill="#1A83AF" d="m163.38 106.41-3.498-9.207-.023 5.657-5.657-.023z" style="stroke:#1a83af;stroke-width:2"/><path fill="none" d="M260.34 47.22c-17.01 17.14-37.495 37.79-54.495 54.93" style="stroke:#1a83af;stroke-width:2"/><path fill="#1A83AF" d="m201.62 106.41 9.178-3.573-5.657.023-.023-5.657z" style="stroke:#1a83af;stroke-width:2"/></svg>
